src/icons/hds/ui/star.svg

<svg xmlns="http://www.w3.org/2000/svg" width="24" height="24" viewBox="0 0 24 24">
  <g fill="none" fill-rule="evenodd">
    <rect width="24" height="24"/>
    <path fill="currentColor" d="M5.20197879,22.2312419 L5.41933555,20.5028146 L6.15589148,14.6556656 L2.18333433,10.3775458 L1,9.11494553 L2.69046862,8.78397418 L8.4017542,7.70525145 L11.1789436,2.53228014 L12.0000167,1 L12.8210898,2.53228014 L15.5982477,7.70525145 L21.309533,8.78397418 L23,9.11494553 L21.8166672,10.3775458 L17.8320449,14.6679195 L18.5686008,20.5028146 L18.7980228,22.2312419 L17.2403938,21.4834716 L12.0000167,18.9705439 L6.75960809,21.4834716 L5.2019791,22.2312419 L5.20197879,22.2312419 Z M7.4961637,19.0195909 L11.601529,17.0459915 L12.0000164,16.8621203 L12.3984723,17.0459915 L16.4917727,19.0195909 L15.9121861,14.4595405 L15.8517988,14.0059579 L16.1657375,13.6872624 L19.2689306,10.3407684 L14.8254653,9.49495131 L14.3787184,9.40914579 L14.1734265,9.0046228 L12.0000164,4.95940864 L9.82657473,9.0046228 L9.60921797,9.40914579 L9.17453594,9.49495131 L4.73107063,10.3407684 L7.83426372,13.6872624 L8.13613762,14.0059579 L8.08781511,14.4595405 L7.4961637,19.0195909 L7.4961637,19.0195909 Z"/>
  </g>
</svg>

<svg viewBox="0 0 24 24" role="img" xmlns="http://www.w3.org/2000/svg"><g fill="none" fill-rule="evenodd"><path d="M0 0h24v24H0z"/><path d="M5.202 22.231l.217-1.728.737-5.847-3.973-4.278L1 9.115l1.69-.331 5.712-1.079 2.777-5.173L12 1l.821 1.532 2.777 5.173 5.712 1.079 1.69.33-1.183 1.264-3.985 4.29.737 5.835.229 1.728-1.558-.748L12 18.971l-5.24 2.512-1.558.748zm2.294-3.211l4.106-1.974.398-.184.398.184 4.094 1.974-.58-4.56-.06-.454.314-.319 3.103-3.346-4.444-.846-.446-.086-.206-.404L12 4.959 9.827 9.005l-.218.404-.434.086-4.444.846 3.103 3.346.302.319-.048.454-.592 4.56z" fill="currentColor"/></g></svg>
